X: 48
T: No_53_Final_Song_of_Hunci_Dance.krn
N: Derived from No_53_Final_Song_of_Hunci_Dance.krn
%%abc-version 2.0
%%abcx-abcm2ps-target-version 5.9.1 (29 Sep 2008)
%%abc-creator hum2abc beta
%%abcx-conversion-date 2019/03/15 08:25:35
%%humdrum-veritas 60389233
%%humdrum-veritas-data 4002626021
%%linebreak <none>
%%barnumbers 0
L: 1/8
M: 3/4
K: G clef=bass
[K:clef=bass][M:3/4]z4z E, ]|:  
D2B,2B,D | 
[M:2/4]B,2B,A, | 
[M:5/8]G,G,z2G, | 
[M:3/4]D2B,2B,D | 
[M:2/4]B,2B,A, | 
[M:5/8]G,G,z2G, | 
[M:3/4]B,2B,2G,B, | 
[M:2/4]G,2D,D, | 
[M:3/8]B,,B,,2 | 
[M:2/4]D,D, B,,D, | 
D,4 | 
[M:3/4]D,2D,D, D,/ z/ G, | 
[M:2/4]G,E,E,2 | 
[M:5/8]G,G,G,E,E, | 
D,E,D,B,,B,, | 
[M:3/4]B,,6 | 
[M:2/4]B,,2z G, | 
E,E,E,2 | 
[M:5/8]G,G,G,E,E, | 
D,E,D,B,,B,, | 
[M:3/4]B,,6 | 
[M:2/4]B,,2z E, | 
D,2D,2 | 
B,,D, D,E, | 
[M:3/8]E,D,D, | 
[M:3/4]D,6 | 
[M:2/4]D,2z B, :|]  
[M:2/4]D,2z G, | 
E,E,E,2 | 
[M:5/8]G,G,G,E,E, | 
D,E,D,B,,B,, | 
[M:2/4]B,,4 | 
B,,2z2 | 
B,,2B,,B,, | 
B,,4 |]  



